X:515
T:Madam McKeenys Scotch Measure
B:Scottish Fiddlers and Their Music
Z:Nigel Gatherer
N:Transposed from C
M:4/4
L:1/8
K:D
FE  | D3 F ABAF | A2 d2 d3 A | Bcde (3def e>d | e2 E2 E2 
F>E | D3 F ABAF | A2 d2 d3 A | BcdB edce      | d2 D2 D2 :|
de  | fedB ABdA | B2 d2 d3 F | GABA BAGF      | E2 e2 e2 
de  | fedf edce | dcBA  BAGF | EFGE AGFE      | D2 d2 d2
de  | fedB ABdA | B2 d2 d3 F | GABA BAGF      | E2 e2 e2 
de  | fedf edce | dcBA  BAGf | gagf edce      | d2 D2 D2 |]  

